X: 1
T:GOD REST YE MERRY, GENTLEMEN
M:C
L:1/8
Q:80
C:
S:
K:HP
B2|
{g}B2f2{g}f2e2|
d2c2B2A2|
B2c2d2e2|  !
f6B2|
{g}B2f2{g}f2e2|
d2c2B2A2|
B2c2d2e2|  !
f6{g}f2|
g2e2f2g2|
a2g2f2e2|  !
d2B2c2d2|
e4d2e2|
f4g2f2|  !
{g}f2e2d2c2|
B4dcB2|
e4d2e2|  !
f2g2a2g2|
f2e2d2c2|
B6|]  !
